icons/fediverse-dark.svg

<svg width="256" height="256" viewBox="0 0 256 256" fill="none" xmlns="http://www.w3.org/2000/svg">
<rect width="256" height="256" rx="60" fill="#282828"/>
<path d="M61.3894 100.77C59.2487 104.874 55.8944 108.215 51.7849 110.339L104.512 163.32L117.224 156.872L61.3894 100.77ZM130.938 170.652L118.226 177.1L144.943 203.946C147.084 199.842 150.439 196.499 154.549 194.376L130.938 170.652Z" fill="#A730B8"/>
<path d="M191.943 121.734L162.092 136.876L164.293 150.967L198.068 133.834C194.83 130.528 192.691 126.302 191.943 121.734V121.734ZM144.763 145.666L74.1841 181.468C77.4227 184.774 79.5623 189 80.3105 193.569L146.964 159.757L144.763 145.666Z" fill="#5496BE"/>
<path d="M122.066 57.4756L88.0088 124.024L98.064 134.127L134.123 63.6682C129.563 62.8961 125.352 60.7334 122.066 57.4756V57.4756ZM79.1512 141.332L61.9006 175.04C66.4605 175.812 70.6709 177.974 73.9568 181.232L89.2057 151.435L79.1512 141.332Z" fill="#CE3D1A"/>
<path d="M51.4921 110.487C48.0184 112.227 44.1531 113.036 40.2737 112.834C39.5479 112.794 38.8245 112.718 38.106 112.608L48.179 177.097C51.6526 175.357 55.5179 174.548 59.3973 174.75C60.1227 174.79 60.8457 174.866 61.5638 174.977L51.4921 110.487Z" fill="#D0188F"/>
<path d="M80.364 193.888C80.5946 195.386 80.6733 196.902 80.5989 198.416C80.4271 201.503 79.6207 204.522 78.23 207.283L142.65 217.63C142.419 216.133 142.34 214.615 142.414 213.102C142.586 210.015 143.393 206.996 144.784 204.235L80.364 193.888Z" fill="#5B36E9"/>
<path d="M198.294 134.069L168.561 192.171C173.121 192.943 177.333 195.106 180.619 198.364L210.353 140.263C205.792 139.491 201.581 137.328 198.294 134.069V134.069Z" fill="#30B873"/>
<path d="M157.741 51.894C155.6 55.9982 152.245 59.3404 148.135 61.464L194.182 107.731C196.323 103.627 199.678 100.285 203.788 98.1615L157.741 51.894Z" fill="#EBE305"/>
<path d="M115.713 45.1406L57.5039 74.6667C60.742 77.9723 62.8814 82.1981 63.6297 86.7665L121.838 57.2391C118.601 53.9338 116.461 49.7085 115.713 45.1406V45.1406Z" fill="#F47601"/>
<path d="M148.029 61.5176C144.509 63.3221 140.575 64.1643 136.626 63.9588C135.968 63.9189 135.312 63.85 134.66 63.7523L139.817 96.7998L153.886 99.0594L148.029 61.5176ZM142.813 116.012L155.004 194.146C158.437 192.462 162.242 191.682 166.059 191.881C166.846 191.926 167.63 192.012 168.408 192.139L156.883 118.271L142.813 116.012Z" fill="#57C115"/>
<path d="M63.6712 87.0144C63.9106 88.5349 63.9934 90.0759 63.9182 91.6133C63.7486 94.6764 62.9543 97.6724 61.5842 100.417L94.6268 105.729L101.121 93.0343L63.6712 87.0144ZM120.303 96.1173L113.808 108.813L191.88 121.363C191.656 119.882 191.58 118.383 191.654 116.887C191.827 113.782 192.643 110.746 194.049 107.972L120.303 96.1173Z" fill="#DBB210"/>
<path d="M136.737 61.9182C147.995 62.532 157.618 53.8946 158.232 42.6261C158.845 31.3577 150.216 21.7252 138.957 21.1114C127.699 20.4976 118.076 29.1349 117.462 40.4034C116.849 51.6719 125.479 61.3044 136.737 61.9182Z" fill="#FFCA00" fill-opacity="0.995968"/>
<path d="M212.966 138.513C224.225 139.127 233.848 130.49 234.461 119.221C235.075 107.953 226.445 98.3204 215.187 97.7066C203.929 97.0928 194.305 105.73 193.692 116.999C193.079 128.267 201.708 137.9 212.966 138.513Z" fill="#64FF00" fill-opacity="0.995968"/>
<path d="M163.727 234.728C174.985 235.342 184.609 226.704 185.222 215.436C185.835 204.167 177.206 194.535 165.948 193.921C154.69 193.307 145.066 201.945 144.453 213.213C143.839 224.482 152.469 234.114 163.727 234.728Z" fill="#00A3FF" fill-opacity="0.995968"/>
<path d="M57.0656 217.597C68.3237 218.21 77.9473 209.573 78.5605 198.305C79.1738 187.036 70.5444 177.404 59.2863 176.79C48.0281 176.176 38.4045 184.813 37.7913 196.082C37.178 207.35 45.8074 216.983 57.0656 217.597Z" fill="#9500FF" fill-opacity="0.995968"/>
<path d="M40.3846 110.794C51.6428 111.408 61.2664 102.771 61.8796 91.5024C62.4929 80.2339 53.8635 70.6014 42.6053 69.9876C31.3472 69.3738 21.7236 78.0111 21.1104 89.2796C20.4971 100.548 29.1265 110.181 40.3846 110.794Z" fill="#FF0000" fill-opacity="0.995968"/>
</svg>

<svg xmlns="http://www.w3.org/2000/svg" width="256" height="256" fill="none"><rect width="256" height="256" fill="#282828" rx="60"/><path fill="#A730B8" d="M61.39 100.77a22.47 22.47 0 0 1-9.605 9.569l52.727 52.981 12.712-6.448zm69.548 69.882-12.712 6.448 26.717 26.846a22.47 22.47 0 0 1 9.606-9.57z"/><path fill="#5496BE" d="m191.943 121.734-29.851 15.142 2.201 14.091 33.775-17.133a22.5 22.5 0 0 1-6.125-12.1m-47.18 23.932-70.579 35.802a22.5 22.5 0 0 1 6.127 12.101l66.653-33.812z"/><path fill="#CE3D1A" d="m122.066 57.476-34.057 66.548 10.055 10.103 36.059-70.459a22.45 22.45 0 0 1-12.057-6.192m-42.915 83.856-17.25 33.708c4.56.772 8.77 2.934 12.056 6.192l15.249-29.797z"/><path fill="#D0188F" d="M51.492 110.487a22.44 22.44 0 0 1-11.218 2.347 23 23 0 0 1-2.168-.226l10.073 64.489a22.44 22.44 0 0 1 11.218-2.347q1.09.06 2.167.227z"/><path fill="#5B36E9" d="M80.364 193.888c.23 1.498.31 3.014.235 4.528a22.5 22.5 0 0 1-2.369 8.867l64.42 10.347a22.5 22.5 0 0 1-.236-4.528 22.5 22.5 0 0 1 2.37-8.867z"/><path fill="#30B873" d="m198.294 134.069-29.733 58.102a22.45 22.45 0 0 1 12.058 6.193l29.734-58.101a22.45 22.45 0 0 1-12.059-6.194"/><path fill="#EBE305" d="M157.741 51.894a22.47 22.47 0 0 1-9.606 9.57l46.047 46.267a22.47 22.47 0 0 1 9.606-9.57z"/><path fill="#F47601" d="m115.713 45.14-58.21 29.527a22.5 22.5 0 0 1 6.127 12.1l58.208-29.528a22.5 22.5 0 0 1-6.125-12.098"/><path fill="#57C115" d="M148.029 61.518a22.44 22.44 0 0 1-11.403 2.44 22 22 0 0 1-1.966-.206l5.157 33.048 14.069 2.26zm-5.216 54.494 12.191 78.134a22.45 22.45 0 0 1 11.055-2.265 23 23 0 0 1 2.349.258l-11.525-73.868z"/><path fill="#DBB210" d="M63.671 87.014a22.5 22.5 0 0 1 .247 4.6 22.5 22.5 0 0 1-2.334 8.803l33.043 5.312 6.494-12.695zm56.632 9.103-6.495 12.696 78.072 12.55c-.224-1.481-.3-2.98-.226-4.476a22.5 22.5 0 0 1 2.395-8.915z"/><path fill="#FFCA00" fill-opacity=".996" d="M136.737 61.918c11.258.614 20.881-8.023 21.495-19.292.613-11.268-8.016-20.9-19.275-21.515-11.258-.613-20.881 8.024-21.495 19.292-.613 11.269 8.017 20.901 19.275 21.515"/><path fill="#64FF00" fill-opacity=".996" d="M212.966 138.513c11.259.614 20.882-8.023 21.495-19.292.614-11.268-8.016-20.9-19.274-21.514s-20.882 8.023-21.495 19.292c-.613 11.268 8.016 20.901 19.274 21.514"/><path fill="#00A3FF" fill-opacity=".996" d="M163.727 234.728c11.258.614 20.882-8.024 21.495-19.292s-8.016-20.901-19.274-21.515-20.882 8.024-21.495 19.292c-.614 11.269 8.016 20.901 19.274 21.515"/><path fill="#9500FF" fill-opacity=".996" d="M57.066 217.597c11.258.613 20.881-8.024 21.495-19.292.613-11.269-8.017-20.901-19.275-21.515s-20.882 8.023-21.495 19.292c-.613 11.268 8.016 20.901 19.275 21.515"/><path fill="red" fill-opacity=".996" d="M40.385 110.794c11.258.614 20.881-8.023 21.495-19.292.613-11.268-8.017-20.9-19.275-21.514S21.724 78.01 21.11 89.28c-.613 11.268 8.017 20.901 19.275 21.514"/></svg>
